X:1750
T:Gleanntn Frolics #2
M:12/8
L:1/8
R:slide
D:Slide: Harmonic Motion
Z:Devin McCabe
K:D
A3 AFA d3 d2d|def g2g fed B2d|
!d2B AFA d2c d2e|1f2a afd efe d2B:|2f2b afd efe def|
!|:g3 bag f3 a3|e2f a2f efd B2c|
!d2B AFA d2c d2e|1f2a afd efe def:|2f2b afd efe dcB||
